svgs/light/face-sleepy.svg

<svg xmlns="http://www.w3.org/2000/svg" viewBox="0 0 512 512"><!--! Font Awesome Pro 6.4.0 by @fontawesome - https://fontawesome.com License - https://fontawesome.com/license (Commercial License) Copyright 2023 Fonticons, Inc. --><path d="M256 32C132.3 32 32 132.3 32 256s100.3 224 224 224c31.9 0 62.2-6.7 89.6-18.6c8.1-3.5 17.5 .2 21.1 8.3s-.2 17.5-8.3 21.1C327 504.4 292.4 512 256 512C114.6 512 0 397.4 0 256S114.6 0 256 0S512 114.6 512 256c0 23.6-3.2 46.5-9.2 68.3c-2.4 8.5-11.2 13.5-19.7 11.2s-13.5-11.2-11.2-19.7c5.2-19 8.1-39 8.1-59.7C480 132.3 379.7 32 256 32zm64.3 285c1.4-7.5 8-13 15.7-13c27.8 0 70.8 13.3 106.7 36.6C478.5 363.7 512 399.9 512 448c0 35.3-28.7 64-64 64s-64-28.7-64-64c0-16.2-.1-39.4-7.2-61.5c-6.9-21.5-20.2-41.1-46.7-51.7c-7.1-2.8-11.2-10.3-9.8-17.9zm76 34.8c4.7 8.1 8.3 16.5 11 25c8.8 27.2 8.8 54.9 8.8 70.8v.5c0 17.7 14.3 32 32 32s32-14.3 32-32c0-31.9-22.5-59.7-54.7-80.6c-9.4-6.1-19.3-11.3-29.1-15.7zm-87.3 78c-16.2-6.1-34-9.4-52.9-9.4c-18.8 0-36.7 3.4-52.9 9.4c-11.2 4.2-23.6 2.3-32.4-4.5c-4.5-3.5-8.4-8.6-10-15.1c-1.6-6.7-.5-13.5 2.7-19.5C180.9 358 215.9 336 256 336c40.1 0 75.2 22.1 92.5 54.7c3.2 6 4.3 12.8 2.7 19.5c-1.6 6.5-5.5 11.6-10 15.1c-8.8 6.8-21.2 8.7-32.4 4.5zM256 368c-24.9 0-46.7 12.1-59.6 30.2c18.5-6.4 38.6-9.8 59.6-9.8c21 0 41.1 3.5 59.6 9.9C302.7 380 280.9 368 256 368zM387.2 238.4c5.3-7.1 15.3-8.5 22.4-3.2s8.5 15.3 3.2 22.4c-30.4 40.5-91.2 40.5-121.6 0c-5.3-7.1-3.9-17.1 3.2-22.4s17.1-3.9 22.4 3.2c17.6 23.5 52.8 23.5 70.4 0zm-262.4 0c17.6 23.5 52.8 23.5 70.4 0c5.3-7.1 15.3-8.5 22.4-3.2s8.5 15.3 3.2 22.4c-30.4 40.5-91.2 40.5-121.6 0c-5.3-7.1-3.9-17.1 3.2-22.4s17.1-3.9 22.4 3.2z"/></svg>

<svg xmlns="http://www.w3.org/2000/svg" viewBox="0 0 512 512"><!--! Font Awesome Pro 6.3.0 by @fontawesome - https://fontawesome.com License - https://fontawesome.com/license (Commercial License) Copyright 2023 Fonticons, Inc. --><path d="M256 32C132.3 32 32 132.3 32 256C32 379.7 132.3 480 256 480C287.9 480 318.2 473.3 345.6 461.4C353.7 457.8 363.1 461.5 366.7 469.6C370.2 477.7 366.5 487.2 358.4 490.7C327 504.4 292.4 512 256 512C114.6 512 0 397.4 0 256C0 114.6 114.6 0 256 0C397.4 0 512 114.6 512 256C512 279.6 508.8 302.5 502.8 324.3C500.4 332.8 491.6 337.8 483.1 335.4C474.6 333.1 469.6 324.3 471.9 315.7C477.2 296.7 480 276.7 480 256C480 132.3 379.7 32 256 32H256zM320.3 316.1C321.7 309.4 328.3 304 336 304C363.8 304 406.8 317.3 442.7 340.6C478.5 363.7 512 399.9 512 448C512 483.3 483.3 512 448 512C412.7 512 384 483.3 384 448C384 431.8 383.9 408.6 376.8 386.5C369.8 365 356.6 345.5 330.1 334.9C322.9 332 318.8 324.5 320.3 316.1H320.3zM396.3 351.7C400.9 359.8 404.5 368.3 407.2 376.7C416 403.9 416 431.6 416 447.5V448C416 465.7 430.3 480 448 480C465.7 480 480 465.7 480 448C480 416.1 457.5 388.3 425.3 367.4C415.9 361.3 405.1 356.1 396.3 351.7V351.7zM255.1 420.3C237.2 420.3 219.3 423.7 203.1 429.7C191.9 433.9 179.5 432.1 170.7 425.3C166.2 421.8 162.4 416.7 160.8 410.1C159.2 403.5 160.3 396.7 163.5 390.7C180.9 358 215.9 335.1 256 335.1C296.1 335.1 331.2 358 348.5 390.7C351.7 396.7 352.9 403.5 351.3 410.2C349.7 416.7 345.8 421.8 341.3 425.3C332.5 432.1 320.1 433.9 308.9 429.8C292.7 423.7 274.9 420.3 255.1 420.3L255.1 420.3zM196.4 398.1C214.1 391.8 235 388.3 255.1 388.3C276.1 388.3 297.1 391.8 315.6 398.2C302.7 380 280.9 367.1 256 367.1C231.1 367.1 209.4 380 196.4 398.1V398.1zM409.6 235.2C416.7 240.5 418.1 250.5 412.8 257.6C382.4 298.1 321.6 298.1 291.2 257.6C285.9 250.5 287.3 240.5 294.4 235.2C301.5 229.9 311.5 231.3 316.8 238.4C334.4 261.9 369.6 261.9 387.2 238.4C392.5 231.3 402.5 229.9 409.6 235.2V235.2zM124.8 238.4C142.4 261.9 177.6 261.9 195.2 238.4C200.5 231.3 210.5 229.9 217.6 235.2C224.7 240.5 226.1 250.5 220.8 257.6C190.4 298.1 129.6 298.1 99.2 257.6C93.9 250.5 95.33 240.5 102.4 235.2C109.5 229.9 119.5 231.3 124.8 238.4z"/></svg>
